<?xml version="1.0" encoding="UTF-8"?>
<map version="1.10" tiledversion="1.12.2" orientation="orthogonal" renderorder="right-down" width="75" height="50" tilewidth="16" tileheight="16" infinite="0" nextlayerid="3" nextobjectid="7">
 <tileset firstgid="1" source="place_holder_tileset.tsx"/>
 <layer id="1" name="Tile Layer 1" width="75" height="50">
  <data encoding="csv">
1,24,24,24,24,24,24,24,24,24,24,24,24,24,24,24,24,1,1,1,1,24,24,24,24,24,24,24,24,24,24,24,24,24,24,24,24,24,24,24,24,24,24,24,24,24,24,24,24,24,24,24,24,24,24,24,24,24,24,24,24,24,24,24,24,24,24,24,24,24,24,24,24,24,1,
19,0,0,0,0,0,0,0,0,0,0,0,0,0,0,0,13,18,1,1,19,0,0,0,0,9,9,9,9,9,9,9,9,0,0,0,0,0,0,0,0,0,0,0,0,0,0,0,0,0,0,0,0,0,0,0,0,0,0,0,12,12,12,12,12,12,12,12,12,12,12,12,12,12,18,
19,0,0,0,0,0,0,0,0,0,0,0,0,0,0,0,13,18,1,1,19,0,0,0,0,0,0,0,0,0,0,0,0,0,0,0,0,0,0,0,0,0,0,0,0,0,0,0,0,0,0,0,0,0,0,0,0,0,0,0,0,0,0,0,0,0,0,0,0,0,0,0,0,0,18,
19,0,0,0,0,0,0,0,0,0,0,0,0,0,0,0,13,18,1,1,19,0,0,0,0,0,0,0,0,0,0,0,0,0,0,0,0,0,0,0,0,0,0,0,0,0,0,0,0,0,0,0,0,0,0,0,0,0,0,0,0,0,0,0,0,0,0,0,0,0,0,0,0,0,18,
19,0,0,0,0,0,0,0,0,0,0,0,0,0,0,0,13,18,1,1,19,0,0,0,0,0,0,0,0,0,0,0,0,0,0,0,0,0,0,0,0,0,0,0,0,0,0,0,0,0,0,0,0,0,0,0,0,0,0,0,0,0,0,0,0,0,0,0,0,0,0,0,0,0,18,
19,0,0,0,0,0,0,0,0,0,0,0,0,0,0,0,13,18,1,1,19,0,0,0,0,0,0,0,0,0,0,0,0,0,0,0,0,0,0,0,0,0,0,0,0,0,0,0,0,0,0,0,0,0,0,0,0,0,0,0,0,0,0,0,0,0,0,0,0,0,0,0,0,0,18,
19,0,0,0,0,0,0,0,0,0,0,0,0,0,0,0,13,18,1,1,19,0,0,0,0,0,0,0,0,0,0,0,0,0,0,0,0,0,0,0,0,0,0,0,0,0,0,0,0,0,0,0,0,0,0,0,0,0,0,0,0,0,0,0,0,0,0,0,0,0,0,0,0,0,18,
19,0,0,0,0,0,0,0,0,0,0,0,0,0,0,0,13,18,1,1,19,0,0,0,0,0,0,0,0,0,0,0,0,0,0,0,0,0,0,0,0,0,0,0,0,0,0,0,0,0,0,0,0,0,0,0,0,0,0,0,0,0,0,0,0,0,0,0,0,0,0,0,0,0,18,
19,0,0,0,0,0,0,0,0,0,0,0,0,0,0,0,13,18,1,1,19,0,0,0,0,0,0,0,0,0,0,0,0,0,0,0,0,0,0,0,0,0,0,0,0,0,0,0,0,0,0,0,0,0,0,0,0,0,0,0,0,0,0,0,0,0,0,0,0,0,0,0,0,0,18,
19,0,0,0,0,0,0,0,0,0,0,0,0,0,0,0,13,18,1,1,19,0,0,0,0,0,0,0,0,0,0,0,0,0,0,0,0,0,0,0,0,0,0,0,0,0,0,0,0,0,0,0,0,0,0,0,0,0,0,0,0,0,0,0,0,0,0,0,0,0,0,0,0,0,18,
19,0,0,0,0,0,0,0,0,0,0,0,0,0,0,0,13,18,1,1,19,0,0,0,0,0,0,0,0,0,0,0,0,0,0,0,0,0,0,0,0,0,0,0,0,0,0,0,0,0,0,0,0,0,0,0,0,0,0,0,0,0,0,0,0,0,0,0,0,0,0,0,0,0,18,
19,0,0,0,0,0,0,0,0,0,0,0,0,0,0,0,13,18,1,1,19,0,0,0,0,0,0,0,0,0,0,0,0,0,0,0,0,0,0,0,0,0,0,0,0,0,0,0,0,0,0,0,0,0,0,0,0,0,0,0,0,0,0,0,0,0,0,0,0,0,0,0,0,0,18,
19,0,0,0,0,0,0,0,0,0,0,0,0,0,0,0,13,18,1,1,19,0,0,0,0,0,0,0,0,0,0,0,0,0,0,7,7,7,7,7,7,7,7,7,7,7,7,7,7,7,7,7,7,7,7,7,7,7,7,7,0,0,0,0,0,0,0,0,0,0,0,0,0,0,18,
19,0,0,0,0,0,0,0,0,0,0,0,0,0,0,0,13,18,1,1,19,0,0,0,0,0,0,0,0,0,0,0,0,0,13,20,21,21,21,21,21,21,21,21,21,21,21,21,21,21,21,21,21,21,21,21,21,21,21,15,11,0,0,0,0,0,0,0,0,0,0,0,0,0,18,
19,0,0,0,0,0,0,0,0,0,0,0,0,0,0,0,13,18,1,1,19,0,0,0,0,0,0,0,0,0,0,0,0,0,13,18,1,1,1,1,1,1,1,1,1,1,1,1,1,1,1,1,1,1,1,1,1,1,1,19,11,0,0,0,0,0,0,0,0,0,0,0,0,0,18,
19,0,0,0,0,0,0,0,0,0,0,0,0,0,0,0,13,18,1,1,19,0,0,0,0,0,0,0,0,0,0,0,0,0,13,18,1,1,1,1,1,1,1,1,1,1,1,1,1,1,1,1,1,1,1,1,1,1,1,19,11,0,0,0,0,0,0,0,0,0,0,0,0,0,18,
19,0,0,0,0,0,0,0,0,0,0,0,0,0,0,0,13,18,1,1,19,0,0,0,0,0,0,0,0,0,0,0,0,0,13,16,24,24,24,24,24,24,24,24,24,24,24,24,24,24,24,24,24,24,24,24,1,1,1,19,11,0,0,0,0,0,0,0,0,0,0,0,0,0,18,
19,0,0,0,0,0,0,0,0,0,0,0,0,0,0,0,13,18,1,1,19,0,0,0,0,0,0,0,0,0,0,0,0,0,0,0,0,0,0,0,0,0,0,0,10,10,10,10,10,10,10,10,0,0,0,0,18,1,1,19,11,0,0,0,0,0,0,0,0,0,0,0,0,0,18,
19,0,0,0,0,0,0,0,0,0,0,0,0,0,0,0,13,18,1,1,19,0,0,0,0,0,0,0,0,0,0,0,0,0,0,0,0,0,0,0,0,0,0,0,0,0,0,0,0,0,0,0,0,0,0,0,18,1,1,19,11,0,0,0,0,0,0,0,0,0,0,0,0,0,18,
19,0,0,0,0,0,0,0,0,0,0,0,0,0,0,0,13,18,1,1,19,0,0,0,0,0,0,0,0,0,0,0,0,0,0,0,0,0,0,0,0,0,0,0,0,0,0,0,0,0,0,0,0,0,0,0,18,1,1,19,11,0,0,0,0,0,0,0,0,0,0,0,0,0,18,
19,0,0,0,0,0,0,0,0,0,0,0,0,0,0,0,13,18,1,1,19,0,0,0,0,0,0,0,0,0,0,0,0,0,0,0,0,0,0,0,0,0,0,0,0,0,0,0,0,0,0,0,0,0,0,0,18,1,1,19,11,0,0,0,0,0,0,0,0,0,0,0,0,0,18,
19,0,0,0,0,0,0,0,0,0,0,0,0,0,0,0,13,18,1,1,19,0,0,0,0,0,0,0,0,0,0,0,0,0,0,0,0,0,0,0,0,0,0,0,0,0,0,0,0,0,0,0,0,0,0,0,18,1,1,19,11,0,0,0,0,0,0,0,0,0,0,0,0,0,18,
19,0,0,0,0,0,0,0,0,0,0,0,0,0,0,0,13,18,1,1,19,0,0,0,0,0,0,0,0,0,0,0,0,0,0,0,0,0,0,0,0,0,0,0,0,0,0,0,0,0,0,0,0,0,0,0,18,1,1,19,11,0,0,0,0,0,0,0,0,0,0,0,0,0,18,
19,0,0,0,0,0,0,0,0,0,0,0,0,0,0,0,13,18,1,1,19,0,0,0,0,0,0,0,0,0,0,0,0,0,0,0,0,0,0,0,0,0,0,0,0,0,0,0,0,0,0,0,0,0,0,0,18,1,1,19,11,0,0,0,0,0,0,0,0,0,0,0,0,0,18,
19,0,0,0,0,0,0,0,0,0,0,0,0,0,0,0,13,18,1,1,19,0,0,0,0,0,0,0,0,0,0,0,0,0,0,0,0,0,0,0,0,0,0,0,0,0,0,0,0,0,0,0,0,0,0,0,18,1,1,19,11,0,0,0,0,0,0,0,0,0,0,0,0,0,18,
19,0,0,0,0,0,0,0,0,0,0,0,0,0,0,0,13,18,1,1,19,0,0,0,0,0,0,0,0,0,0,0,0,0,0,0,0,0,0,0,0,0,0,0,0,0,0,0,0,0,0,0,0,0,0,0,18,1,1,19,11,0,0,0,0,0,0,0,0,0,0,0,0,0,18,
19,0,0,0,0,0,0,0,0,0,0,0,0,0,0,0,13,18,1,1,19,0,0,0,0,0,0,0,0,0,0,0,0,0,0,0,0,0,0,0,0,0,0,0,0,0,0,0,0,0,0,0,0,0,0,0,18,1,1,19,11,0,0,0,0,0,0,0,0,0,0,0,0,0,18,
19,0,0,0,0,0,0,0,0,0,0,0,0,0,0,0,13,18,1,1,19,0,0,0,0,0,0,0,0,0,0,0,0,0,0,0,0,0,0,0,0,0,0,0,0,0,0,0,0,0,0,0,0,0,0,0,18,1,1,19,11,0,0,0,0,0,0,0,0,0,0,0,0,0,18,
19,0,0,0,0,0,0,0,0,0,0,0,0,0,0,0,13,18,1,1,19,0,0,0,0,0,0,0,0,0,0,0,0,0,0,0,0,0,0,0,0,0,0,0,0,0,0,0,0,0,0,0,0,0,0,0,18,1,1,19,11,0,0,0,0,0,0,0,0,0,0,0,0,0,18,
19,0,0,0,0,0,0,0,0,0,0,0,0,0,0,0,13,18,1,1,19,0,0,0,0,0,0,0,0,0,0,0,0,0,0,0,0,0,0,0,0,0,0,0,0,0,0,0,0,0,0,0,0,0,0,0,18,1,1,19,11,0,0,0,0,0,0,0,0,0,0,0,0,0,18,
19,0,0,0,0,0,0,0,0,0,0,0,0,0,0,0,13,18,1,1,19,0,0,0,0,0,0,0,0,0,0,0,0,0,0,0,0,0,0,0,0,0,0,0,0,0,0,0,0,0,0,0,0,0,0,0,18,1,1,19,11,0,0,0,0,0,0,0,0,0,0,0,0,0,18,
19,0,0,0,0,0,0,0,0,0,0,0,0,0,0,0,13,18,1,1,19,0,0,0,0,0,0,0,0,0,0,0,0,0,0,0,0,0,0,0,0,0,0,0,0,0,0,0,0,0,0,0,0,0,0,0,18,1,1,19,11,0,0,0,0,0,0,0,0,0,0,0,0,0,18,
19,0,0,0,0,0,0,0,0,0,0,0,0,0,0,0,13,18,1,1,19,0,0,0,0,0,0,0,0,0,0,0,0,0,0,0,0,0,0,0,0,0,0,0,0,0,0,0,0,0,0,0,0,0,0,0,18,1,1,19,11,0,0,0,0,0,0,0,0,0,0,0,0,0,18,
19,0,0,0,0,0,0,0,0,0,0,0,0,0,0,0,13,18,1,1,19,0,0,0,0,0,0,0,0,0,0,0,0,0,0,0,0,0,0,0,0,0,0,0,0,0,0,0,0,0,0,0,0,0,0,0,18,1,1,19,11,0,0,0,0,0,0,0,0,0,0,0,0,0,18,
19,0,0,0,0,0,0,0,0,0,0,0,0,0,0,0,13,18,1,1,1,21,21,21,21,21,21,21,21,21,21,21,21,21,21,21,21,21,21,21,21,21,21,21,21,21,21,21,21,21,21,21,21,21,21,21,1,1,1,19,11,0,0,0,0,0,0,0,0,0,0,0,0,0,18,
19,0,0,0,0,0,0,0,0,0,0,0,0,0,0,0,13,18,1,1,1,1,1,1,1,1,1,1,1,1,1,1,1,1,1,1,1,1,1,1,1,1,1,1,1,1,1,1,1,1,1,1,1,1,1,1,1,1,1,19,11,0,0,0,0,0,0,0,0,0,0,0,0,0,18,
19,0,0,0,0,0,0,0,0,0,0,0,0,0,0,0,13,18,1,1,1,1,1,1,1,1,1,1,1,1,1,1,1,1,1,1,1,1,1,1,1,1,1,1,1,1,1,1,1,1,1,1,1,1,1,1,1,1,1,19,11,0,0,0,0,0,0,0,0,0,0,0,0,0,18,
19,0,0,0,0,0,0,0,0,0,0,0,0,0,0,0,13,18,1,1,1,1,1,1,1,1,1,1,1,1,1,1,1,1,1,1,1,1,1,1,1,1,1,1,1,1,1,1,1,1,1,1,1,1,1,1,1,1,1,19,11,0,0,0,0,0,0,0,0,0,0,0,0,0,18,
19,0,0,0,0,0,0,0,0,0,0,0,0,0,0,0,13,16,24,24,24,24,24,24,24,24,24,24,24,24,24,24,24,24,24,24,24,24,24,24,24,24,24,24,24,24,24,24,24,24,24,24,24,24,24,24,24,24,24,14,11,0,0,0,0,0,0,0,0,0,0,0,0,0,18,
19,0,0,0,0,0,0,0,0,0,0,0,0,0,0,0,0,12,12,12,12,12,12,12,12,12,12,12,12,12,12,12,12,12,12,12,12,12,12,12,12,12,12,12,12,12,12,12,12,12,12,12,12,12,12,12,12,12,12,12,0,0,0,0,0,0,0,0,0,0,0,0,0,0,18,
19,0,0,0,0,0,0,0,0,0,0,0,0,0,0,0,0,0,0,0,0,0,0,0,0,0,0,0,0,0,0,0,0,0,0,0,0,0,0,0,0,0,0,0,0,0,0,0,0,0,0,0,0,0,0,0,0,0,0,0,0,0,0,0,0,0,0,0,0,0,0,0,0,0,18,
19,0,0,0,0,0,0,0,0,0,0,0,0,0,0,0,0,0,0,0,0,0,0,0,0,0,0,0,0,0,0,0,0,0,0,0,0,0,0,0,0,0,0,0,0,0,0,0,0,0,0,0,0,0,0,0,0,0,0,0,0,0,0,0,0,0,0,0,0,0,0,0,0,0,18,
19,0,0,0,0,0,0,0,0,0,0,0,0,0,0,0,0,0,0,0,0,0,0,0,0,0,0,0,0,0,0,0,0,0,0,0,0,0,0,0,0,0,0,0,0,0,0,0,0,0,0,0,0,0,0,0,0,0,0,0,0,0,0,0,0,0,0,0,0,0,0,0,0,0,18,
19,0,0,0,0,0,0,0,0,0,0,0,0,0,0,0,0,0,0,0,0,0,0,0,0,0,0,0,0,0,0,0,0,0,0,0,0,0,0,0,0,0,0,0,0,0,0,0,0,0,0,0,0,0,0,0,0,0,0,0,0,0,0,0,0,0,0,0,0,0,0,0,0,0,18,
19,0,0,0,0,0,0,0,0,0,0,0,0,0,0,0,0,0,0,0,0,0,0,0,0,0,0,0,0,0,0,0,0,0,0,0,0,0,0,0,0,0,0,0,0,0,0,0,0,0,0,0,0,0,0,0,0,0,0,0,0,0,0,0,0,0,0,0,0,0,0,0,0,0,18,
19,0,0,0,0,0,0,0,0,0,0,0,0,0,0,0,0,0,0,0,0,0,0,0,0,0,0,0,0,0,0,0,0,0,0,0,0,0,0,0,0,0,0,0,0,0,0,0,0,0,0,0,0,0,0,0,0,0,0,0,0,0,0,0,0,0,0,0,0,0,0,0,0,0,18,
19,0,0,0,0,0,0,0,0,0,0,0,0,0,0,0,0,0,0,0,0,0,0,0,0,0,0,0,0,0,0,0,0,0,0,0,0,0,0,0,0,0,0,0,0,0,0,0,0,0,0,0,0,0,0,0,0,0,0,0,0,0,0,0,0,0,0,0,0,0,0,0,0,0,18,
19,0,0,0,0,0,0,0,0,0,0,0,0,0,0,0,0,0,0,0,0,0,0,0,0,0,0,0,0,0,0,0,0,0,0,0,0,0,0,0,0,0,0,0,0,0,0,0,0,0,0,0,0,0,0,0,0,0,0,0,0,0,0,0,0,0,0,0,0,0,0,0,0,0,18,
19,7,7,7,7,7,7,7,7,7,7,7,7,0,0,0,0,0,0,0,0,0,0,0,0,0,0,0,0,0,0,0,0,0,0,0,0,0,0,0,0,0,0,0,0,0,0,0,0,0,0,0,0,0,0,0,0,0,0,0,0,0,0,0,0,0,0,0,0,0,0,0,0,0,18,
1,21,21,21,21,21,21,21,21,21,21,21,21,21,21,21,21,21,21,21,21,21,21,21,21,21,21,21,21,21,21,21,21,21,21,21,21,21,21,21,21,21,21,21,21,21,21,21,21,21,21,21,21,21,21,21,21,21,21,21,21,21,21,21,21,21,21,21,21,21,21,21,21,21,1
</data>
 </layer>
 <objectgroup id="2" name="object_layer">
  <object id="1" name="time_stop" type="clock" x="1078.38" y="56.5166" width="80" height="80">
   <properties>
    <property name="ability_type" value="clock"/>
   </properties>
   <ellipse/>
  </object>
  <object id="3" name="gravity_swap" x="1041.85" y="683.525" width="100" height="100">
   <properties>
    <property name="ability_type" value="gravity_swap"/>
   </properties>
  </object>
  <object id="4" name="B_portal_ceiling" x="402.898" y="12.5097" width="128" height="16">
   <properties>
    <property name="portal_id" type="int" value="1"/>
    <property name="portal_rotation" type="int" value="180"/>
    <property name="portal_target" type="int" value="2"/>
    <property name="portal_type" value="portal"/>
   </properties>
  </object>
  <object id="5" name="Orange_portal_floor" x="703.305" y="271.897" width="128" height="16">
   <properties>
    <property name="portal_id" type="int" value="2"/>
    <property name="portal_rotation" type="int" value="180"/>
    <property name="portal_target" type="int" value="1"/>
    <property name="portal_type" value="portal"/>
   </properties>
  </object>
  <object id="6" name="slow_time" x="120.807" y="433.962" width="60" height="90">
   <properties>
    <property name="ability_type" value="slow_time"/>
   </properties>
  </object>
 </objectgroup>
</map>
